**kern	**kern
*part1	*part1
*staff2	*staff1
*I"Piano	*
*clefF4	*clefG2
*k[b-]	*k[b-]
=1	=1
(16DDLL	1d 1g 1b-
16FF	.
16BB-	.
16DJJ)	.
(16DDLL	.
16FF	.
16BB-	.
16DJJ)	.
(16DDLL	.
16FF	.
16BB-	.
16DJJ)	.
(16DDLL	.
16FF	.
16BB-	.
16DJJ)	.
=	=
(16CCLL	1c 1f 1a
16FF	.
16AA	.
16CJJ)	.
(16CCLL	.
16FF	.
16AA	.
16CJJ)	.
(16CCLL	.
16FF	.
16AA	.
16CJJ)	.
(16CCLL	.
16FF	.
16AA	.
16CJJ)	.
=	=
(16BBB-LL	1d 1g 1b- 1dd
16DD	.
16FF	.
16BB-JJ)	.
(16BBB-LL	.
16DD	.
16FF	.
16BB-JJ)	.
(16BBB-LL	.
16DD	.
16FF	.
16BB-JJ)	.
(16BBB-LL	.
16DD	.
16FF	.
16BB-JJ)	.
=	=
(16FFLL	1c 1f 1a 1cc
16AA	.
16C	.
16FJJ)	.
(16FFLL	.
16AA	.
16C	.
16FJJ)	.
(16FFLL	.
16AA	.
16C	.
16FJJ)	.
(16FFLL	.
16AA	.
16C	.
16FJJ)	.
=	=
(16FF#XLL	1d 1a 1dd
16AA	.
16C	.
16F#XJJ)	.
(16FF#LL	.
16AA	.
16C	.
16F#JJ)	.
(16FF#LL	.
16AA	.
16C	.
16F#JJ)	.
(16FF#LL	.
16AA	.
16C	.
16F#JJ)	.
=	=
(16GGLL	2.d 2.g 2.b-
16BB-	.
16D	.
16GJJ)	.
(16GGLL	.
16BB-	.
16D	.
16GJJ)	.
(16GGLL	.
16BB-	.
16D	.
16GJJ)	.
(16GGLL	4d 4g 4b-
16BB-	.
16D	.
16GJJ)	.
=	=
(16AALL	2d 2e 2a
16D	.
16E	.
16AJJ)	.
(16AALL	.
16D	.
16E	.
16AJJ)	.
(16AALL	2c#X 2e 2a
16C#X	.
16E	.
16AJJ)	.
(16AALL	.
16C#	.
16E	.
16AJJ)	.
=	=
(16DDLL	2d 2f#X 2a
16FF#X	.
16AA	.
16DJJ)	.
(16DDLL	.
16FF#	.
16AA	.
16DJJ)	.
(16DDLL	4r
16FF#	.
16AA	.
16DJJ)	.
(16DDLL	4d
16FF#	.
16AA	.
16DJJ)	.
=	=
*-	*-
!!!system-decoration: {(s1,s2)}
